img/icons/icon-business.svg

<svg width="26" height="26" fill="none" xmlns="http://www.w3.org/2000/svg"><path d="M22.1 21.97v-3.25c0-.91-.13-1.82-.65-2.73-.52-.91-1.17-1.69-2.08-2.21-.91-.65-2.86-.78-3.77-.78l-2.08 2.21.78 1.69v3.9L13 22.23l-1.3-1.43v-3.9l.91-1.69L10.4 13c-1.04 0-2.99.13-3.9.78-.91.52-1.43 1.3-1.95 2.21-.52.91-.65 1.69-.65 2.73v3.25S7.28 23.4 13 23.4s9.1-1.43 9.1-1.43zM13 2.73c-2.47 0-3.9 2.34-3.51 4.94.39 2.6 1.69 4.42 3.51 4.42 1.82 0 3.12-1.82 3.51-4.42.39-2.73-1.04-4.94-3.51-4.94z" fill="#132576"/></svg>

<svg width="26" height="26" viewBox="0 0 26 26" fill="none" xmlns="http://www.w3.org/2000/svg">
<path d="M22.1 21.97V18.72C22.1 17.81 21.97 16.9 21.45 15.99C20.93 15.08 20.28 14.3 19.37 13.78C18.46 13.13 16.51 13 15.6 13L13.52 15.21L14.3 16.9V20.8L13 22.23L11.7 20.8V16.9L12.61 15.21L10.4 13C9.36 13 7.41 13.13 6.5 13.78C5.59 14.3 5.07 15.08 4.55 15.99C4.03 16.9 3.9 17.68 3.9 18.72V21.97C3.9 21.97 7.28 23.4 13 23.4C18.72 23.4 22.1 21.97 22.1 21.97Z" fill="#132576"/>
<path d="M13 2.72998C10.53 2.72998 9.1 5.06998 9.49 7.66998C9.88 10.27 11.18 12.09 13 12.09C14.82 12.09 16.12 10.27 16.51 7.66998C16.9 4.93998 15.47 2.72998 13 2.72998Z" fill="#132576"/>
</svg>
